public/primaries/Share.svg

<svg id="Layer_1" data-name="Layer 1" xmlns="http://www.w3.org/2000/svg" width="64" height="64" viewBox="0 0 64 64">
  <defs>
    <style>
      .cls-1 {
        fill-rule: evenodd;
      }
    </style>
  </defs>
  <title>Icons 100</title>
  <path class="cls-1" d="M50,29.9944V50.0006a6.0078,6.0078,0,0,1-6,6.0021H20a6.0077,6.0077,0,0,1-6-6.0021V29.9944a6.0076,6.0076,0,0,1,6-6.0022h4a2.0008,2.0008,0,0,1,0,4.0015H20a2.0022,2.0022,0,0,0-2,2.0007V50.0006a2.0022,2.0022,0,0,0,2,2.0006H44a2.0027,2.0027,0,0,0,2-2.0006V29.9944a2.0027,2.0027,0,0,0-2-2.0007H40a2.0008,2.0008,0,0,1,0-4.0015h4A6.0077,6.0077,0,0,1,50,29.9944ZM32,40a2,2,0,0,1-2-2V18.0109H25.0048a1.0273,1.0273,0,0,1-.8189-1.6224l6.9888-9.9743a0.9955,0.9955,0,0,1,1.6381,0l6.9888,9.9743a1.0274,1.0274,0,0,1-.8192,1.6224H34V38A2,2,0,0,1,32,40Z"/>
</svg>

<svg id="Layer_1" data-name="Layer 1" xmlns="http://www.w3.org/2000/svg" width="64" height="64" viewBox="0 0 64 64"><defs><style>.cls-1{fill-rule:evenodd}</style></defs><title>Icons 100</title><path class="cls-1" d="M50 29.994v20.007a6.008 6.008 0 0 1-6 6.002H20A6.008 6.008 0 0 1 14 50V29.994a6.008 6.008 0 0 1 6-6.002h4a2 2 0 0 1 0 4.002h-4a2.002 2.002 0 0 0-2 2v20.007a2.002 2.002 0 0 0 2 2h24a2.003 2.003 0 0 0 2-2V29.994a2.003 2.003 0 0 0-2-2h-4a2 2 0 0 1 0-4.002h4a6.008 6.008 0 0 1 6 6.002zM32 40a2 2 0 0 1-2-2V18.01h-4.995a1.027 1.027 0 0 1-.82-1.622l6.99-9.974a.996.996 0 0 1 1.638 0l6.989 9.975a1.027 1.027 0 0 1-.82 1.622H34V38a2 2 0 0 1-2 2z"/></svg>
